assets/Woman superhero/Medium/Flat/woman_superhero_flat_medium.svg

<svg width="32" height="32" viewBox="0 0 32 32" fill="none" xmlns="http://www.w3.org/2000/svg">
<path d="M23.178 11.9242C23.3864 11.4886 23.5 11.0057 23.5 10.4943C23.5 9.82197 23.3011 9.19697 22.9508 8.67614C22.6004 8.1553 22.4205 7.53977 22.4205 6.9053V6.89583C22.4205 5.07765 20.9432 3.60038 19.125 3.60038C18.9451 3.60038 18.7746 3.51515 18.6705 3.37311C18.0833 2.53977 17.108 2 16 2C14.9015 2 13.9261 2.53977 13.3295 3.37311C13.2254 3.52462 13.0549 3.60985 12.875 3.60985C11.0568 3.60985 9.57955 5.08712 9.57955 6.9053V6.91477C9.57955 7.54924 9.39962 8.1553 9.04924 8.68561C8.70833 9.19697 8.5 9.82197 8.5 10.4943C8.5 11.0057 8.61364 11.4886 8.82197 11.9242C8.88826 12.0663 8.88826 12.2367 8.82197 12.3788C8.61364 12.8049 8.5 13.2784 8.5 13.7898C8.5 15.5606 9.93939 17 11.7102 17H20.2803C22.0511 17 23.4905 15.5606 23.4905 13.7898C23.4905 13.2879 23.3769 12.8049 23.1686 12.3788C23.1117 12.2367 23.1117 12.0663 23.178 11.9242Z" fill="#593B39"/>
<path d="M12.7702 10.59C12.7702 11.5124 12.0225 12.26 11.1002 12.26C10.1779 12.26 9.43018 11.5124 9.43018 10.59C9.43018 9.66773 10.1779 8.92004 11.1002 8.92004C12.0225 8.92004 12.7702 9.66773 12.7702 10.59Z" fill="#BB806E"/>
<path d="M22.5601 10.59C22.5601 11.5124 21.8124 12.26 20.8901 12.26C19.9678 12.26 19.2201 11.5124 19.2201 10.59C19.2201 9.66773 19.9678 8.92004 20.8901 8.92004C21.8124 8.92004 22.5601 9.66773 22.5601 10.59Z" fill="#BB806E"/>
<path d="M21.9982 16.635C22.0232 16.322 21.7865 16 21.388 16H11.1049C10.7712 16 10.5517 16.2364 10.508 16.5H10.5C10.5 16.5 2.5 18.4801 2 30H4L16 27L28 30H30C29.5758 19.8035 23.7546 17.1972 21.9982 16.635Z" fill="#F8312F"/>
<path d="M8 30L6.5 24.5L8 18.8549C8.7607 18.0829 9.62204 17.4143 10.5772 16.8815C10.622 16.9568 10.687 17.0247 10.7741 17.0788L16 20.5L21.7188 17.0788C21.7259 17.0744 21.7328 17.0699 21.7396 17.0652C22.5693 17.5651 23.3243 18.1692 24 18.8549L25.5 24.5L24 30H8Z" fill="#007ACF"/>
<path d="M8 30V18.8549C5.42217 21.471 4 25.2743 4 29V30H8Z" fill="#0092E7"/>
<path d="M24 18.8549V30H28V29C28 25.2743 26.5778 21.471 24 18.8549Z" fill="#0092E7"/>
<path d="M13.3317 23H18.6683C19.4595 23 19.9373 23.8752 19.5095 24.5408L16.8412 28.6915C16.4475 29.3038 15.5525 29.3038 15.1588 28.6915L12.4905 24.5408C12.0627 23.8752 12.5405 23 13.3317 23Z" fill="#0092E7"/>
<path d="M15.97 20.93C16.5223 20.93 16.97 20.4823 16.97 19.93C16.97 19.3777 16.5223 18.93 15.97 18.93C15.4177 18.93 14.97 19.3777 14.97 19.93C14.97 20.4823 15.4177 20.93 15.97 20.93Z" fill="#FCD53F"/>
<path d="M16 18.5C14.8932 18.5 14 17.5359 14 16.3413V13.6587C14 12.4641 14.8932 11.5 16 11.5C17.1068 11.5 18 12.4641 18 13.6587V16.3413C18 17.5359 17.1068 18.5 16 18.5Z" fill="#B87A66"/>
<path d="M8 18.8549V30H4V29C4 25.2743 5.42217 21.471 8 18.8549Z" fill="#0092E7"/>
<path d="M24 30V18.8549C26.5778 21.471 28 25.2743 28 29V30H24Z" fill="#0092E7"/>
<path d="M19.9111 7.35994H16.7387C15.4793 7.35994 14.305 6.73494 13.5948 5.70274C13.4717 5.53229 13.216 5.5607 13.1402 5.75956L13.0645 5.94896C12.8277 6.4982 12.4016 6.92433 11.8713 7.16108C11.8429 7.17055 11.805 7.18949 11.7671 7.19896C11.5399 7.32206 10.9906 7.68191 10.9717 8.62888L10.9735 8.67168L12 10L11.084 11.3093L11.1043 11.7918C11.2179 14.5948 13.377 16.4698 16.0001 16.4698C18.6232 16.4698 20.7823 14.5948 20.8959 11.7918L20.9149 11.3282L20 10L21.0176 8.6916C20.9771 7.45037 20.0869 7.35994 19.9111 7.35994Z" fill="#C68D7B"/>
<path d="M16.0005 13.7057C15.45 13.7057 14.9301 13.5669 14.4918 13.3212C14.3389 13.2358 14.186 13.4174 14.2777 13.5669C14.6447 14.1542 15.2767 14.5493 16.0005 14.5493C16.7243 14.5493 17.3563 14.1542 17.7233 13.5669C17.8151 13.4174 17.652 13.2465 17.5093 13.3212C17.0607 13.5669 16.551 13.7057 16.0005 13.7057Z" fill="#990838"/>
<path d="M20.6727 8.67764H21.0171C21.0184 8.71105 21.019 8.74529 21.019 8.7804L20.9145 11.3376H20.5748C20.3889 11.3376 20.2127 11.3776 20.0464 11.4576L19.7822 11.5776L19.5473 11.6676L19.3712 11.7276C18.9602 11.8776 18.5002 11.8876 18.0795 11.7676L17.7761 11.6776C17.6587 11.6476 17.5413 11.5976 17.4336 11.5476L17.2281 11.4476C17.0618 11.3676 16.8856 11.3276 16.6997 11.3276H15.2612C15.0753 11.3276 14.8991 11.3676 14.7328 11.4476L14.5077 11.5576C14.4098 11.6076 14.3022 11.6476 14.1946 11.6776L13.9206 11.7576C13.4998 11.8776 13.0496 11.8676 12.6289 11.7376L12.4136 11.6676C12.3255 11.6376 12.2374 11.5976 12.1494 11.5576L11.9047 11.4376C11.7384 11.3576 11.5622 11.3176 11.3763 11.3176H11.0844L10.9729 8.65764H11.2687C11.5231 8.65764 11.7677 8.57764 11.983 8.43764L12.0124 8.40764C12.1983 8.28764 12.394 8.18764 12.5995 8.11764L12.6386 8.10764C13.0594 7.96764 13.5096 7.96764 13.9304 8.08764L14.0184 8.11764C14.2435 8.18764 14.4588 8.28764 14.6545 8.42764L14.6643 8.43764C14.8698 8.57764 15.1144 8.65764 15.3688 8.65764H16.5823C16.8367 8.65764 17.0813 8.58764 17.2868 8.43764C17.4923 8.28764 17.7174 8.18764 17.9523 8.11764L18.0795 8.08764C18.5002 7.96764 18.9504 7.97764 19.3712 8.12764C19.5669 8.19764 19.7528 8.28764 19.9192 8.40764L19.9681 8.43764C20.1834 8.57764 20.428 8.65764 20.6727 8.67764Z" fill="#F8312F"/>
<path d="M15.6541 10.2897L15.1583 12.0282C15.0554 12.384 15.2986 12.75 15.6447 12.75H16.3743C16.7204 12.75 16.9636 12.384 16.8607 12.0282L16.365 10.2897C16.2621 9.90342 15.7663 9.90342 15.6541 10.2897Z" fill="#AB6A55"/>
<path d="M13.3959 9.19678C13.9546 9.19678 14.4092 9.58504 14.7027 10.0206C14.4724 10.0901 14.2484 10.1542 14.0268 10.2177C13.5834 10.3447 13.1498 10.4688 12.6952 10.6267L12.2217 10.2006C12.0323 10.0206 12.0418 9.69867 12.2596 9.54716C12.5721 9.31988 12.9982 9.19678 13.3959 9.19678Z" fill="black"/>
<path d="M18.6136 9.19678C18.0549 9.19678 17.5909 9.58504 17.3068 10.0206C17.5537 10.0961 17.7944 10.1653 18.0338 10.2342C18.4555 10.3555 18.8734 10.4757 19.3143 10.6267L19.7878 10.2006C19.9772 10.0206 19.9677 9.69867 19.7499 9.54716C19.4374 9.31988 19.0113 9.19678 18.6136 9.19678Z" fill="black"/>
<path d="M13.5662 9.3011C12.9128 9.3011 12.3636 9.74618 12.2121 10.3522C12.1742 10.5227 12.3068 10.6931 12.4867 10.6931H14.7121C14.8541 10.6931 14.9677 10.5606 14.9393 10.428C14.8068 9.78406 14.248 9.3011 13.5662 9.3011Z" fill="white"/>
<path d="M18.4338 9.30103C19.0872 9.30103 19.6364 9.7461 19.788 10.3522C19.8258 10.5226 19.6933 10.6931 19.5228 10.6931H17.2974C17.1554 10.6931 17.0417 10.5605 17.0701 10.4279C17.1933 9.78398 17.7614 9.30103 18.4338 9.30103Z" fill="white"/>
<path d="M12.8845 10.4566C12.8845 9.96413 13.2822 9.56641 13.7747 9.56641C14.2671 9.56641 14.6648 9.96413 14.6648 10.4566C14.6648 10.5323 14.6554 10.6175 14.6269 10.6933H12.9129C12.894 10.6175 12.8845 10.5418 12.8845 10.4566Z" fill="#7D4533"/>
<path d="M19.1156 10.4566C19.1156 9.96413 18.7179 9.56641 18.2255 9.56641C17.733 9.56641 17.3353 9.96413 17.3448 10.4566C17.3448 10.5418 17.3542 10.6175 17.3732 10.6933H19.0872C19.1061 10.6175 19.1156 10.5418 19.1156 10.4566Z" fill="#7D4533"/>
<path d="M13.7653 9.94482C14.0494 9.94482 14.2766 10.1721 14.2766 10.4562C14.2766 10.5414 14.2577 10.6172 14.2103 10.6929H13.3107C13.2728 10.6172 13.2539 10.5414 13.2539 10.4562C13.2539 10.1721 13.4812 9.94482 13.7653 9.94482Z" fill="black"/>
<path d="M18.235 9.94482C17.9509 9.94482 17.7236 10.1721 17.7236 10.4562C17.7236 10.5414 17.7426 10.6172 17.7899 10.6929H18.6895C18.7274 10.6172 18.7464 10.5414 18.7464 10.4562C18.7464 10.1721 18.5191 9.94482 18.235 9.94482Z" fill="black"/>
<path d="M13.62 10.02C13.62 10.1084 13.5484 10.18 13.46 10.18C13.3717 10.18 13.3 10.1084 13.3 10.02C13.3 9.93162 13.3717 9.85999 13.46 9.85999C13.5484 9.85999 13.62 9.93162 13.62 10.02Z" fill="white"/>
<path d="M18.12 10.02C18.12 10.1084 18.0484 10.18 17.96 10.18C17.8717 10.18 17.8 10.1084 17.8 10.02C17.8 9.93162 17.8717 9.85999 17.96 9.85999C18.0484 9.85999 18.12 9.93162 18.12 10.02Z" fill="white"/>
</svg>

<svg xmlns="http://www.w3.org/2000/svg" width="32" height="32" fill="none"><path fill="#593B39" d="M23.178 11.924c.208-.435.322-.918.322-1.43 0-.672-.199-1.297-.55-1.818a3.162 3.162 0 0 1-.53-1.77v-.01A3.298 3.298 0 0 0 19.126 3.6a.565.565 0 0 1-.454-.227A3.252 3.252 0 0 0 16 2c-1.098 0-2.074.54-2.67 1.373a.549.549 0 0 1-.455.237A3.298 3.298 0 0 0 9.58 6.905v.01c0 .634-.18 1.24-.53 1.77a3.262 3.262 0 0 0-.55 1.81c0 .51.114.994.322 1.43a.544.544 0 0 1 0 .454A3.213 3.213 0 0 0 11.71 17h8.57c1.771 0 3.21-1.44 3.21-3.21 0-.502-.113-.985-.321-1.411a.583.583 0 0 1 .009-.455Z"/><path fill="#BB806E" d="M12.77 10.59a1.67 1.67 0 1 1-3.34 0 1.67 1.67 0 0 1 3.34 0ZM22.56 10.59a1.67 1.67 0 1 1-3.34 0 1.67 1.67 0 0 1 3.34 0Z"/><path fill="#F8312F" d="M21.998 16.635a.592.592 0 0 0-.61-.635H11.105a.592.592 0 0 0-.597.5H10.5S2.5 18.48 2 30h2l12-3 12 3h2c-.424-10.197-6.245-12.803-8.002-13.365Z"/><path fill="#007ACF" d="m8 30-1.5-5.5L8 18.855c.76-.772 1.622-1.44 2.577-1.974.045.076.11.144.197.198L16 20.5l5.719-3.421a.496.496 0 0 0 .02-.014c.83.5 1.585 1.104 2.261 1.79l1.5 5.645L24 30H8Z"/><path fill="#0092E7" d="M8 30V18.855C5.422 21.47 4 25.275 4 29v1h4ZM24 18.855V30h4v-1c0-3.726-1.422-7.529-4-10.145ZM13.332 23h5.336a1 1 0 0 1 .841 1.54l-2.668 4.152a1 1 0 0 1-1.682 0L12.49 24.54A1 1 0 0 1 13.33 23Z"/><path fill="#FCD53F" d="M15.97 20.93a1 1 0 1 0 0-2 1 1 0 0 0 0 2Z"/><path fill="#B87A66" d="M16 18.5c-1.107 0-2-.964-2-2.159V13.66c0-1.195.893-2.159 2-2.159s2 .964 2 2.159v2.682c0 1.195-.893 2.159-2 2.159Z"/><path fill="#0092E7" d="M8 18.855V30H4v-1c0-3.726 1.422-7.529 4-10.145ZM24 30V18.855c2.578 2.616 4 6.42 4 10.145v1h-4Z"/><path fill="#C68D7B" d="M19.911 7.36H16.74a3.82 3.82 0 0 1-3.144-1.657.258.258 0 0 0-.455.057l-.075.189c-.237.55-.663.975-1.194 1.212-.028.01-.066.028-.104.038-.227.123-.776.483-.795 1.43l.002.043L12 10l-.916 1.31.02.482c.114 2.803 2.273 4.678 4.896 4.678 2.623 0 4.782-1.875 4.896-4.678l.019-.464L20 10l1.018-1.308c-.04-1.242-.931-1.332-1.107-1.332Z"/><path fill="#990838" d="M16 13.706c-.55 0-1.07-.14-1.508-.385-.153-.085-.306.096-.214.246.367.587.999.982 1.722.982.724 0 1.356-.395 1.723-.982.092-.15-.071-.32-.214-.246a3.118 3.118 0 0 1-1.509.385Z"/><path fill="#F8312F" d="M20.673 8.678h.344l.002.102-.104 2.558h-.34c-.186 0-.362.04-.529.12l-.264.12-.235.09-.176.06c-.41.15-.87.16-1.291.04l-.304-.09a2.025 2.025 0 0 1-.342-.13l-.206-.1a1.204 1.204 0 0 0-.528-.12H15.26c-.186 0-.362.04-.528.12l-.225.11c-.098.05-.206.09-.313.12l-.274.08c-.421.12-.871.11-1.292-.02l-.215-.07a2.946 2.946 0 0 1-.265-.11l-.244-.12a1.204 1.204 0 0 0-.529-.12h-.292l-.111-2.66h.296c.254 0 .499-.08.714-.22l.03-.03c.185-.12.381-.22.587-.29l.039-.01c.42-.14.87-.14 1.291-.02l.088.03c.225.07.44.17.636.31l.01.01c.206.14.45.22.705.22h1.213c.255 0 .5-.07.705-.22.205-.15.43-.25.665-.32l.127-.03c.421-.12.871-.11 1.292.04.196.07.382.16.548.28l.05.03c.214.14.459.22.704.24Z"/><path fill="#AB6A55" d="m15.654 10.29-.496 1.738c-.103.356.14.722.487.722h.73c.345 0 .589-.366.486-.722l-.496-1.738c-.103-.387-.599-.387-.71 0Z"/><path fill="#000" d="M13.396 9.197c.559 0 1.013.388 1.307.824-.23.07-.455.133-.676.197-.444.127-.877.25-1.332.409l-.473-.426c-.19-.18-.18-.502.038-.654a1.99 1.99 0 0 1 1.136-.35ZM18.614 9.197c-.56 0-1.023.388-1.307.824.247.075.487.144.727.213.422.121.84.242 1.28.393l.474-.426c.19-.18.18-.502-.038-.654a1.99 1.99 0 0 0-1.136-.35Z"/><path fill="#fff" d="M13.566 9.301c-.653 0-1.202.445-1.354 1.051-.038.17.095.341.275.341h2.225c.142 0 .256-.132.227-.265a1.401 1.401 0 0 0-1.373-1.127ZM18.434 9.301c.653 0 1.202.445 1.354 1.051.038.17-.095.341-.265.341h-2.226c-.142 0-.255-.133-.227-.265A1.391 1.391 0 0 1 18.434 9.3Z"/><path fill="#7D4533" d="M12.884 10.457a.89.89 0 1 1 1.78 0c0 .075-.009.16-.037.236h-1.714a.956.956 0 0 1-.029-.236ZM19.116 10.457a.89.89 0 0 0-.89-.89.875.875 0 0 0-.881.89c0 .085.01.16.028.236h1.714a.956.956 0 0 0 .029-.236Z"/><path fill="#000" d="M13.765 9.945a.51.51 0 0 1 .512.511.427.427 0 0 1-.067.237h-.9a.513.513 0 0 1 .455-.748ZM18.235 9.945a.51.51 0 0 0-.511.511c0 .085.019.161.066.237h.9a.513.513 0 0 0-.455-.748Z"/><path fill="#fff" d="M13.62 10.02a.16.16 0 1 1-.32 0 .16.16 0 0 1 .32 0ZM18.12 10.02a.16.16 0 1 1-.32 0 .16.16 0 0 1 .32 0Z"/></svg>
